resources/js/Projects/EF28/Components/Icons/StairsDown.svg

<?xml version="1.0" encoding="UTF-8" standalone="no"?>
<!-- Created with Inkscape (http://www.inkscape.org/) -->

<svg
    viewBox="0 0 512 512"
    version="1.1"
    id="svg136"
    xml:space="preserve"
    xmlns="http://www.w3.org/2000/svg"
    xmlns:svg="http://www.w3.org/2000/svg"><defs
     id="defs133" /><g
    id="layer1" class="svgIconFill"><path
       id="path489"
       style="fill-opacity:1;stroke:none;stroke-width:64;stroke-miterlimit:10;paint-order:markers fill stroke"
       d="M -256 0 C -114.61538 0 0 -114.61538 0 -256 C 0 -397.38462 -114.61538 -512 -256 -512 C -397.38462 -512 -512 -397.38462 -512 -256 C -512 -114.61538 -397.38462 0 -256 0 z M -264.57422 -100.46875 C -268.38766 -100.46875 -272.19959 -101.92612 -275.11523 -104.8418 L -376.16016 -205.88672 L -376.19336 -136.46875 C -376.19339 -128.23238 -382.88082 -121.54495 -391.11719 -121.54492 C -399.35359 -121.54493 -406.04102 -128.23236 -406.04102 -136.46875 L -406.04102 -241.89453 L -405.97656 -241.89453 C -405.97656 -250.13092 -399.28718 -256.82031 -391.05078 -256.82031 L -285.625 -256.82031 C -277.38857 -256.82031 -270.70112 -250.13089 -270.70117 -241.89453 C -270.70112 -233.65812 -277.38857 -226.97069 -285.625 -226.9707 L -355.10742 -227.00391 L -254.03125 -125.92578 C -248.1999 -120.09445 -248.1999 -110.67317 -254.03125 -104.8418 C -256.94694 -101.92611 -260.76077 -100.46875 -264.57422 -100.46875 z M -59.421875 -153.01562 L -141.58984 -153.01562 C -152.95209 -153.01563 -162.13086 -162.19634 -162.13086 -173.55859 L -162.13086 -235.18359 L -223.75781 -235.18359 C -235.12006 -235.18359 -244.29883 -244.3643 -244.29883 -255.72656 L -244.29883 -317.35156 L -305.92383 -317.35156 C -317.28608 -317.35156 -326.4668 -326.53227 -326.4668 -337.89453 L -326.4668 -399.51953 L -388.0918 -399.51953 C -399.45405 -399.51953 -408.63477 -408.69829 -408.63477 -420.06055 C -408.63477 -431.4228 -399.45405 -440.60352 -388.0918 -440.60352 L -305.92383 -440.60352 C -294.56157 -440.60352 -285.38281 -431.4228 -285.38281 -420.06055 L -285.38281 -358.43555 L -223.75781 -358.43555 C -212.39555 -358.43555 -203.21484 -349.25678 -203.21484 -337.89453 L -203.21484 -276.26758 L -141.58984 -276.26758 C -130.22759 -276.26758 -121.04688 -267.08881 -121.04688 -255.72656 L -121.04688 -194.09961 L -59.421875 -194.09961 C -48.059616 -194.09961 -38.878906 -184.92084 -38.878906 -173.55859 C -38.878906 -162.19634 -48.059616 -153.01562 -59.421875 -153.01562 z "
       transform="scale(-1)" /><path
    d="m 323.01334,501.89241 c 0,10.08393 8.18815,18.27208 18.27207,18.27208 l 129.07424,-10e-6 c 10.08398,0 18.27213,-8.18817 18.27206,-18.27207 7e-5,-10.08394 -8.18808,-18.27208 -18.27206,-18.27207 l -85.06798,0.0403 123.74994,-123.74997 c 7.13942,-7.13939 7.13942,-18.67541 0,-25.81483 -7.13942,-7.13942 -18.67545,-7.13941 -25.81481,-1e-5 l -123.70964,123.70965 -0.0403,-84.98735 c -3e-5,-10.0839 -8.18818,-18.27204 -18.27207,-18.27208 -10.08394,2e-5 -18.27209,8.18816 -18.27209,18.27209 l -1e-5,129.07426 z"
    id="path5705"
    style="display:none;stroke-width:0.570433" /></g></svg>

<svg xmlns="http://www.w3.org/2000/svg" xml:space="preserve" viewBox="0 0 512 512"><path d="M-256 0C-114.615 0 0-114.615 0-256s-114.615-256-256-256-256 114.615-256 256S-397.385 0-256 0m-8.574-100.469a14.86 14.86 0 0 1-10.541-4.373L-376.16-205.887l-.033 69.418c0 8.237-6.688 14.924-14.924 14.924s-14.924-6.687-14.924-14.924v-105.426h.064c0-8.236 6.69-14.925 14.926-14.925h105.426c8.236 0 14.924 6.69 14.924 14.925 0 8.237-6.688 14.924-14.924 14.924l-69.482-.033 101.076 101.078c5.831 5.832 5.831 15.253 0 21.084a14.86 14.86 0 0 1-10.543 4.373m205.152-52.547h-82.168c-11.362 0-20.54-9.18-20.54-20.543v-61.625h-61.628c-11.362 0-20.54-9.18-20.54-20.543v-61.625h-61.626c-11.362 0-20.543-9.18-20.543-20.543v-61.625h-61.625c-11.362 0-20.543-9.178-20.543-20.54 0-11.363 9.18-20.544 20.543-20.544h82.168c11.362 0 20.541 9.181 20.541 20.543v61.625h61.625c11.362 0 20.543 9.18 20.543 20.541v61.627h61.625c11.362 0 20.543 9.18 20.543 20.541v61.627h61.625c11.362 0 20.543 9.18 20.543 20.541 0 11.363-9.18 20.543-20.543 20.543" class="svgIconFill" style="fill-opacity:1;stroke:none;stroke-width:64;stroke-miterlimit:10;paint-order:markers fill stroke" transform="scale(-1)"/></svg>
